X:117
T:Carry Me Back To Virginny
S:American Veteran Fifer, #117
C:To S. Philips Salem W.Va. 3rd W.Va.Inf.
M:6/8
L:1/8
Q:1/8=280
K:Amaj 
%%MIDI program 72
%%MIDI transpose 8
%%MIDI ratio 3 1
"^8va only." e | efe c2e | efe c2e | fze czA | B3- B2 e |
efe c2e | fze c2e | fze dcB | A3- A2 :|
|: e | fzf a2f | fec e2e | fzf agf | e3 e2g |
aba g2e | fzf ezc | efe dcB | A3 A2 :|


